X: 7
M: 3/4
L: 1/8
K: Bb
V: 1
|:\
[B2D2] B,>CDE | F>GAF B2 | GedcBA | {A2}B6 |\
E2 g4 |  (gf)(ed)(cB) | ABcded | d2 [c4F4] :|
|:\
[A3F3] GAB | c>Bc>de>d | gfedcB | ABcA F2 |\
V: 2 clef=bass middle=d
|:\
"6"g4 e2 | d2 "6"c2 B2 | f2 z2 B2 | "6;4"f2 "3"F4 :|
|:\
f2 f2 f2 | f4 z2 | z2 e2 c2 | f2 z2 f2 |\
e2 e2 e2 | "6"d2 "^__"d2 "^__"d2 | e2 "6;4"f2 "3"F2 | G6 :|

